X: 6
T:Prince William of Glo'cester's Waltz
N:keyed in for the 1999 Ball
M:3/4
L:1/4
K:Bb
"Bb"Bdf|f2d|"F"ecA|"Bb"B/2A/2 B/2c/2 B|Bdf|f2d|"F"ecA|"Bb"B3:|\
"F"FAc|c2A|"Gm"d2B|"F"e2c|
"Bb"Bdf|f2d|"Eb"ec"F"A|"Bb"B3||"Eb"bag|"Bb"fff|"F"gfe|"Gm"ddd|\
"Eb"bag|"Bb"fff|"F"ecA|"Bb"B3||
